X:1
T:Title
%%score 1 2
L:1/8
Q:1/4=95
M:4/4
K:Eb
V:1 treble nm="Drawbar Organ, Soprano"
V:2 bass nm="Choir Pad, Salto, 11.11.11.10"
V:1
 [EG][FA] [GB]2 [Ac][GB] [GB]2 | [EG]E [ce]2 [Bd][Ac] [GB]2- | [GB][GB] [Ac]2 [ce][Ac] [GB]2 | %3
w: By~Isaiah~Baltzell * * * * *|||
 [EG]E [FA]2 [EG][EG] [DF]2 | [EG][FA] [GB]2 [Ac][GB] [GB]2 | [EG]E [ce]2 [Bd][Ac] [GB]2- | %6
w: |||
 [GB][GB] [ce]2 [Bd][Ac] [GB]2 | [EG][Ac] [GB]2 [GB]>[DB] E2- | E6 z2 |] %9
w: |||
V:2
 z2 E,,6 | z2 A,,4 E,,2- | E,,2 A,,4 E,,2- | E,,2 B,,6 | z2 E,,6 | z2 A,,4 E,,2- | %6
 E,,2 A,,4 E,,2- | E,,2 B,,4 [E,G,]2- | [E,G,]6 z2 |] %9

